X:1
%
T:Charlestown Breakdown
M:C|
L:1/8
R:Reel
B:Milne – Middleton’s Selection of Strathspeys, Reels &c. for the Violin (1870, p. 46)
Z:AK/Fiddler’s Companion
K:A
E2|ABcd edcB|(Aa)ga fg a2|ABcd edcB|Aeee e2E2|
ABcd edcB|(Aa)ga fg a2|eagf edcB|A2A2A2:|
|:z2|A3B A=G G2|(A^G)AG AB e2|eagf edcB|e2e2e2 z2|
A3B A=G G2|(A^G)AG AB e2|eagf edcB|A2A2A2:|]

